X: 10081
T: Did You See The Child?
R: reel
M: 4/4
K: Gmajor
|:BA|GE (3FED EDB,D|E2 GE BEGA|B2 dB BAGA|BAGF EDB,D|
E2 GE DB, (3B,A,B,|E2 GA BEGA|BdBA BeBA|GEDG E2:|
GA|Beed Bdef|gfed eB (3cBA|Bdef g2 fg|efdB ABGA|
Beed Bdef|agfg eB (3cBA|BdBA BeBA|GEDG E2||

